X: 322
T:Je me  (Je [me] suis si trestourte)
N: Derived from Jos2717-Je_me.krn
C: Josquin des Prez
%%abc-version 2.0
%%abcx-abcm2ps-target-version 5.9.1 (29 Sep 2008)
%%abc-creator hum2abc beta
%%abcx-conversion-date 2019/02/12 16:15:54
%%abc-edited-by Jesse Rodin
%%abc-edited-by Jesse Rodin; Victoria Chang 2011/05/30
%%abcx-initial-encoding-date 2011/05/30/
%%humdrum-veritas 3387373497
%%humdrum-veritas-data 739367542
%%linebreak <none>
%%barnumbers 0
L: 1/4
M: 3/1
Q: 1/2=120
V: 1 clef=treble
V: 2 clef=treble-8
V: 3 clef=bass
K: F
[V:1] z12 | 
[V:2] z12 | 
[V:3] z4z4A,4 | 
[V:1] z12 | 
[V:2] z4z4A4 | 
[V:3] B,4A,2G,4^F,2 | 
[V:1] z4z4A4 | 
[V:2] B4A2G4^F2 | 
[V:3] G,2D,4C,B,,A,,4 | 
[V:1] B4A2G4^F2 | 
[V:2] G4A8 | 
[V:3] G,,4D,8 | 
[V:1] G4A8 | 
[V:2] G2E2F2D3EF2 | 
[V:3] E,4D,8 | 
[V:1] G6B4AG | 
[V:2] G8d4- | 
[V:3] G,,4G,6F,E, | 
[V:1] F4G2G4FE | 
[V:2] d4_e8 | 
[V:3] D,4C,8 | 
[V:1] F4G2B4A2 | 
[V:2] d4B4c4 | 
[V:3] D,4G,4F,4 | 
[V:1] B2A3GG4^F2 | 
[V:2] B2c4G2A4 | 
[V:3] G,2F,4E,2D,4 | 
[V:1] G4z4d4- | 
[V:2] G4d4d2B2- | 
[V:3] G,,12- | 
[V:1] d2B4G2G4 | 
[V:2] B2G2G4B4 | 
[V:3] G,,12 | 
[V:1] A4F4G4 | 
[V:2] A2d4B4c2- | 
[V:3] D,8_E,4 | 
[V:1] A2B3AGFE4 | 
[V:2] c2BAG2d4^c2 | 
[V:3] F,2G,6A,4 | 
[V:1] D4z4d4 | 
[V:2] d8G4 | 
[V:3] D,6G,3A,B,2 | 
[V:1] B2c3BAG^F3E | 
[V:2] z4z4d4 | 
[V:3] G,2A,3G,F,E,D,4 | 
[V:1] G4z4A4 | 
[V:2] B2c3BAG^F3E | 
[V:3] E,4C,4D,4 | 
[V:1] B6A4GF | 
[V:2] G2d3ef4ed | 
[V:3] G,,4D,8 | 
[V:1] E2D4G4^F2 | 
[V:2] c2d2G4A4 | 
[V:3] z2B,,3C,_E,2D,4 | 
[V:1] G2d4c2B2AG | 
[V:2] G3AB2c2d4- | 
[V:3] B,6A,2G,2F,E, | 
[V:1] F8z4 | 
[V:2] d4z4B4- | 
[V:3] D,8G,4 | 
[V:1] z12 | 
[V:2] B4A4A4 | 
[V:3] D,2G,2A,G,F,E,F,4 | 
[V:1] B8A4 | 
[V:2] G2d4B2cBAG | 
[V:3] G,4G,,4z4 | 
[V:1] A4G2d4B2 | 
[V:2] F4G4B4 | 
[V:3] D,4G,,4G,4 | 
[V:1] c2A4B2G2A2- | 
[V:2] A4d4e2f2- | 
[V:3] F,4D,2G,4F,2 | 
[V:1] A2GFE2D2E4 | 
[V:2] f2edc2d4^c2 | 
[V:3] D,4A,2B,2A,4 | 
[V:1] D4z4B4 | 
[V:2] d8G4 | 
[V:3] D,6G,3A,B,2 | 
[V:1] c2A3GG4^F2 | 
[V:2] z2c4B2A4 | 
[V:3] A,2F,4G,2D,4 | 
[V:1] G2B2A4z2G2- | 
[V:2] G2d4c2d2B2 | 
[V:3] G,4F,2A,2G,4 | 
[V:1] G2A2F2G2E2D2- | 
[V:2] c2A2z2G3ABc | 
[V:3] E,2F,2D,2_E,2C,2B,,2 | 
[V:1] DEFGA2B2c2d2- | 
[V:2] d3ef2g2e2f2 | 
[V:3] G,,2D,2z2G,,2C,2B,,2- | 
[V:1] dcB2AGG4^F2 | 
[V:2] d4c2B2A4 | 
[V:3] B,,C,D,E,F,2G,2D,4 | 
[V:1] !fermata!G12 ||  
[V:2] !fermata!G12 ||  
[V:3] !fermata!G,,12 ||  
[V:1] [M:2/1]z8 | 
[V:2] [M:2/1]D8 | 
[V:3] [M:2/1]B,,8 | 
[V:1] z8 | 
[V:2] E4F4 | 
[V:3] A,,8 | 
[V:1] B8- | 
[V:2] G8- | 
[V:3] G,,8- | 
[V:1] B8 | 
[V:2] G8 | 
[V:3] G,,8 | 
[V:1] A6G2 | 
[V:2] F6E2 | 
[V:3] D,8 | 
[V:1] F8 | 
[V:2] D4D4 | 
[V:3] z4D,4 | 
[V:1] z4G4 | 
[V:2] E8 | 
[V:3] C,6B,,2 | 
[V:1] A8 | 
[V:2] F4F4 | 
[V:3] A,,8 | 
[V:1] B2B4AG | 
[V:2] G8 | 
[V:3] z4G,4 | 
[V:1] A8 | 
[V:2] D8 | 
[V:3] F,6E,2 | 
[V:1] z8 | 
[V:2] z8 | 
[V:3] D,8 | 
[V:1] D8- | 
[V:2] B8- | 
[V:3] G,,8- | 
[V:1] D8 | 
[V:2] B8- | 
[V:3] G,,8- | 
[V:1] D4D4 | 
[V:2] B8 | 
[V:3] G,,8 | 
[V:1] F4G4 | 
[V:2] A4G4 | 
[V:3] D,4E,4 | 
[V:1] A8 | 
[V:2] F8 | 
[V:3] D,8 | 
[V:1] B6AG | 
[V:2] G8 | 
[V:3] G,,8 | 
[V:1] F8 | 
[V:2] A8 | 
[V:3] D,8- | 
[V:1] z4F4 | 
[V:2] z4A4 | 
[V:3] D,8 | 
[V:1] G4A4 | 
[V:2] B4A2F2 | 
[V:3] z4D,4 | 
[V:1] B4A2F2 | 
[V:2] G3FD4 | 
[V:3] G,4F,2D,2 | 
[V:1] G3FD4 | 
[V:2] z2G2B2c2 | 
[V:3] E,2G,4F,E, | 
[V:1] z2A2B2c2 | 
[V:2] d6e2 | 
[V:3] D,4G,,4 | 
[V:1] d3cBAB2- | 
[V:2] f3edcd2- | 
[V:3] z2D,4G,,2 | 
[V:1] B2AG^F3E | 
[V:2] d2cBA4 | 
[V:3] A,,B,,C,2D,4 | 
[V:1] G8 |]  
[V:2] G8 |]  
[V:3] G,,8 |]  



